X: 20
T: Miss Chamers Reel
%R: reel
B: "Twenty Four Favourite Dances for the Year 1783", Thomas Straight, ed. p.10 #2
F: http://www.vwml.org/browse/browse-collections-dance-tune-books/browse-straights1783
Z: 2014 John Chambers <jc:trillian.mit.edu>
M: C|
L: 1/8
K: Edor
d |\
BEB>A BEBd | dB AF DEFA |\
BEB>A BEBe | dB AF E/E/E E :: f |\
gbeb gebe | fada fdaf |
gbeb gebg | dB AF E/E/E Ef |\
gbeb gebe | fada fdaf |\
afge fdec | d/c/B/A/ dF E/E/E E :|
% - - - - - - - - - - Dance description: - - - - - - - - - -
%%begintext align
%% Cast off 2 Cu up, again .|. cross over 2 Cu
%% lead up the middle cast off 1 Cu :|. turn
%% contrary corners .|: & lead outsides :|:
%%endtext

%%sep 1 1 500
%%sep 1 1 500
